modules/framework7-icons/icons/social_github_fill.svg

<?xml version="1.0" encoding="UTF-8"?>
<svg width="50px" height="50px" viewBox="0 0 50 50" version="1.1" xmlns="http://www.w3.org/2000/svg" xmlns:xlink="http://www.w3.org/1999/xlink">
    <!-- Generator: Sketch 40.1 (33804) - http://www.bohemiancoding.com/sketch -->
    <title>social_github_fill</title>
    <desc>Created with Sketch.</desc>
    <defs></defs>
    <g id="Page-1" stroke="none" stroke-width="1" fill="none" fill-rule="evenodd">
        <g id="social_github_fill" fill="#151513">
            <path d="M0,25.0007674 C0,36.0462261 7.1625894,45.4157586 17.0969029,48.7215691 C18.3477086,48.9517788 18.8035237,48.1798091 18.8035237,47.5168053 C18.8035237,46.9243992 18.7820375,45.3512999 18.7697597,43.2656005 C11.8158937,44.7757758 10.3486909,39.9137481 10.3486909,39.9137481 C9.21145523,37.0253845 7.57236256,36.2564842 7.57236256,36.2564842 C5.30249547,34.706406 7.74425243,34.7371006 7.74425243,34.7371006 C10.2535376,34.9135946 11.5734062,37.3139139 11.5734062,37.3139139 C13.8033703,41.1338592 17.4253353,40.0303877 18.8495657,39.3904049 C19.0767059,37.7758679 19.7228276,36.6739311 20.4364775,36.0492956 C14.8853556,35.4185211 9.04877375,33.2729672 9.04877375,23.6931766 C9.04877375,20.9644249 10.0233279,18.7313914 11.6225176,16.9848676 C11.3646828,16.3525584 10.5067682,13.8095092 11.8680745,10.3686424 C11.8680745,10.3686424 13.9660518,9.69643022 18.7421345,12.9316431 C20.73575,12.3760705 22.875165,12.0998189 25.0007674,12.0890758 C27.124835,12.0998189 29.2627152,12.3760705 31.2594002,12.9316431 C36.0324135,9.69643022 38.1273213,10.3686424 38.1273213,10.3686424 C39.4916971,13.8095092 38.6337825,16.3525584 38.3774824,16.9848676 C39.9797416,18.7313914 40.9466221,20.9644249 40.9466221,23.6931766 C40.9466221,33.2975229 35.1008318,35.4108475 29.5328279,36.0293441 C30.4291108,36.8013137 31.2287056,38.3268363 31.2287056,40.6596274 C31.2287056,44.0007367 31.198011,46.697259 31.198011,47.5168053 C31.198011,48.185948 31.6492219,48.9640566 32.9169097,48.7200344 C42.8435495,45.4065502 50,36.0431566 50,25.0007674 C50,11.1927929 38.8056724,0 24.9976979,0 C11.1943276,0 0,11.1927929 0,25.0007674 Z" id="Fill-3"></path>
        </g>
    </g>
</svg>

<svg width="50" height="50" viewBox="0 0 50 50" xmlns="http://www.w3.org/2000/svg"><path d="M0 25c0 11.046 7.163 20.416 17.097 23.722 1.25.23 1.707-.542 1.707-1.205 0-.593-.022-2.166-.034-4.251-6.954 1.51-8.421-3.352-8.421-3.352-1.138-2.889-2.777-3.658-2.777-3.658-2.27-1.55.172-1.519.172-1.519 2.51.177 3.83 2.577 3.83 2.577 2.23 3.82 5.851 2.716 7.276 2.076.227-1.614.873-2.716 1.586-3.34-5.55-.631-11.387-2.777-11.387-12.357 0-2.729.974-4.962 2.574-6.708-.258-.632-1.116-3.175.245-6.616 0 0 2.098-.673 6.874 2.563 1.994-.556 4.133-.832 6.259-.843 2.124.01 4.262.287 6.258.843 4.773-3.236 6.868-2.563 6.868-2.563 1.365 3.44.507 5.984.25 6.616 1.603 1.746 2.57 3.98 2.57 6.708 0 9.605-5.846 11.718-11.414 12.336.896.772 1.696 2.298 1.696 4.63 0 3.342-.031 6.038-.031 6.858 0 .669.451 1.447 1.719 1.203C42.844 45.407 50 36.043 50 25 50 11.194 38.806 0 24.998 0 11.194 0 0 11.193 0 25z" fill="#151513" fill-rule="evenodd"/></svg>
